icons/papirus/48x48/places/distributor-logo-chakra.svg

<?xml version="1.0" encoding="UTF-8" standalone="no"?>
<!-- Created with Inkscape (http://www.inkscape.org/) -->

<svg
   xmlns:dc="http://purl.org/dc/elements/1.1/"
   xmlns:cc="http://creativecommons.org/ns#"
   xmlns:rdf="http://www.w3.org/1999/02/22-rdf-syntax-ns#"
   xmlns:svg="http://www.w3.org/2000/svg"
   xmlns="http://www.w3.org/2000/svg"
   xmlns:sodipodi="http://sodipodi.sourceforge.net/DTD/sodipodi-0.dtd"
   xmlns:inkscape="http://www.inkscape.org/namespaces/inkscape"
   id="svg5048"
   height="48"
   width="48"
   version="1.1"
   inkscape:version="0.91 r"
   sodipodi:docname="distributor-logo-chakra.svg">
  <sodipodi:namedview
     pagecolor="#ffffff"
     bordercolor="#666666"
     borderopacity="1"
     objecttolerance="10"
     gridtolerance="10"
     guidetolerance="10"
     inkscape:pageopacity="0"
     inkscape:pageshadow="2"
     inkscape:window-width="1600"
     inkscape:window-height="842"
     id="namedview14"
     showgrid="false"
     inkscape:zoom="1"
     inkscape:cx="24"
     inkscape:cy="24"
     inkscape:window-x="-4"
     inkscape:window-y="32"
     inkscape:window-maximized="1"
     inkscape:current-layer="svg5048" />
  <defs
     id="defs5050">
    <style
       id="current-color-scheme"
       type="text/css">.ColorScheme-Text {
        color:#31363b;
      }
      .ColorScheme-Background{
        color:#eff0f1;
      }
      .ColorScheme-ViewText {
        color:#31363b;
      }
      .ColorScheme-ViewBackground{
        color:#fcfcfc;
      }
      .ColorScheme-ViewHover {
        color:#3daee9;
      }
      .ColorScheme-ViewFocus{
        color:#3daee9;
      }
      .ColorScheme-ButtonText {
        color:#31363b;
      }
      .ColorScheme-ButtonBackground{
        color:#eff0f1;
      }
      .ColorScheme-ButtonHover {
        color:#3daee9;
      }
      .ColorScheme-ButtonFocus{
        color:#3daee9;
      }</style>
  </defs>
  <metadata
     id="metadata5053">
    <rdf:RDF>
      <cc:Work
         rdf:about="">
        <dc:format>image/svg+xml</dc:format>
        <dc:type
           rdf:resource="http://purl.org/dc/dcmitype/StillImage" />
        <dc:title></dc:title>
      </cc:Work>
    </rdf:RDF>
  </metadata>
  <path
     style="fill:#0079c1"
     inkscape:connector-curvature="0"
     d="M 44.003,24 C 44.12703,31.8657 39.0539,39.451 31.784,42.428 24.6424,45.5206 15.773,43.9283 10.199,38.4791 4.5542,33.234 2.4937,24.5921 5.1291,17.3541 c 2.5482,-7.5016 9.915,-13.029 17.841,-13.326 7.7057,-0.4977 15.403,3.9685 18.844,10.87 1.4403,2.8006 2.1925,5.9493 2.1885,9.102 z"
     id="path4286" />
  <rect
     style="fill-opacity:0"
     x="864"
     y="-409.03799"
     width="20"
     height="60"
     ry="10"
     id="rect3024" />
  <path
     style="opacity:0.3"
     inkscape:connector-curvature="0"
     d="M 43.979,23.418 A 20,20 0 0 1 24,43 20,20 0 0 1 4.022,23.582 20,20 0 0 0 4,24 20,20 0 0 0 24,44 20,20 0 0 0 44,24 20,20 0 0 0 43.979,23.418 Z"
     id="path4255" />
  <path
     style="opacity:0.2;fill:#ffffff"
     inkscape:connector-curvature="0"
     d="M 24,4 A 20,20 0 0 0 4,24 20,20 0 0 0 4.0215,24.582 20,20 0 0 1 23.9995,5 20,20 0 0 1 43.9785,24.418 20,20 0 0 0 43.9995,24 a 20,20 0 0 0 -20,-20 z"
     id="path4260" />
  <g
     transform="matrix(0.33580654,0,0,0.33171047,2.3721438,3.3949415)"
     style="opacity:0.2;fill:#000000;fill-opacity:1"
     id="g4159">
    <g
       id="g4161"
       transform="translate(19.55714,19.71529)"
       style="fill:#000000;fill-opacity:1">
      <path
         id="path4163"
         transform="matrix(2.233368,0,0,2.2609464,-8.7524117,-8.8454465)"
         d="M 24.935547,4 C 20.478541,4.1445294 36.808826,26.675034 24.232422,25.236328 34.719658,28.141741 37.122246,14.604728 34.980469,7.9824219 32.858845,1.4224583 31.756485,5.5155604 25.433594,4.0585938 25.244886,4.0151105 25.079321,3.9953378 24.935547,4 Z M 12.439453,7.140625 C 5.5453497,7.131403 9.0972529,9.4461663 5.7578125,15.009766 2.5684982,20.323245 30.951398,10.806778 25.527344,22.695312 31.531106,13.618581 19.399053,7.1499304 12.439453,7.140625 Z M 17.289062,17.3125 C 11.772988,17.299386 6.2220539,23.566622 4.6699219,28.322266 2.5307653,34.876471 5.8288993,32.213793 10.087891,37.109375 14.155417,41.784631 13.877897,11.84697 23.507812,20.679688 21.601845,18.284794 19.447526,17.317631 17.289062,17.3125 Z m 23.708985,1.064453 c -3.723787,0.35638 -17.307621,17.623661 -19.582031,6.417969 0.477716,10.872391 14.09654,8.974102 19.732422,4.890625 5.58289,-4.045059 1.347739,-3.83086 0.779296,-10.294922 -0.06784,-0.77168 -0.397718,-1.064583 -0.929687,-1.013672 z m -20.03125,3.599609 c -10.191988,3.814148 -4.177701,16.180728 1.447265,20.279297 5.572028,4.059901 4.059575,0.09861 10.03125,-2.439453 5.7032,-2.423867 -22.8541337,-11.410142 -11.478515,-17.839844 z"
         style="fill:#000000;fill-opacity:1;fill-rule:evenodd"
         inkscape:connector-curvature="0" />
    </g>
  </g>
  <g
     id="g3015"
     style="fill:#ffffff;fill-opacity:1"
     transform="matrix(0.33580654,0,0,0.33171047,2.3721438,2.3949415)">
    <g
       style="fill:#ffffff;fill-opacity:1"
       transform="translate(19.55714,19.71529)"
       id="g7930">
      <path
         inkscape:connector-curvature="0"
         style="fill:#ffffff;fill-opacity:1;fill-rule:evenodd"
         d="M 24.935547,4 C 20.478541,4.1445294 36.808826,26.675034 24.232422,25.236328 34.719658,28.141741 37.122246,14.604728 34.980469,7.9824219 32.858845,1.4224583 31.756485,5.5155604 25.433594,4.0585938 25.244886,4.0151105 25.079321,3.9953378 24.935547,4 Z M 12.439453,7.140625 C 5.5453497,7.131403 9.0972529,9.4461663 5.7578125,15.009766 2.5684982,20.323245 30.951398,10.806778 25.527344,22.695312 31.531106,13.618581 19.399053,7.1499304 12.439453,7.140625 Z M 17.289062,17.3125 C 11.772988,17.299386 6.2220539,23.566622 4.6699219,28.322266 2.5307653,34.876471 5.8288993,32.213793 10.087891,37.109375 14.155417,41.784631 13.877897,11.84697 23.507812,20.679688 21.601845,18.284794 19.447526,17.317631 17.289062,17.3125 Z m 23.708985,1.064453 c -3.723787,0.35638 -17.307621,17.623661 -19.582031,6.417969 0.477716,10.872391 14.09654,8.974102 19.732422,4.890625 5.58289,-4.045059 1.347739,-3.83086 0.779296,-10.294922 -0.06784,-0.77168 -0.397718,-1.064583 -0.929687,-1.013672 z m -20.03125,3.599609 c -10.191988,3.814148 -4.177701,16.180728 1.447265,20.279297 5.572028,4.059901 4.059575,0.09861 10.03125,-2.439453 5.7032,-2.423867 -22.8541337,-11.410142 -11.478515,-17.839844 z"
         transform="matrix(2.233368,0,0,2.2609464,-8.7524117,-8.8454465)"
         id="path7811" />
    </g>
  </g>
</svg>

<?xml version="1.0" encoding="UTF-8" standalone="no"?>
<!-- Created with Inkscape (http://www.inkscape.org/) -->
<svg id="svg5048" xmlns:rdf="http://www.w3.org/1999/02/22-rdf-syntax-ns#" xmlns="http://www.w3.org/2000/svg" height="48" width="48" version="1.1" xmlns:cc="http://creativecommons.org/ns#" xmlns:dc="http://purl.org/dc/elements/1.1/">
 <defs id="defs5050">
  <style id="current-color-scheme" type="text/css">.ColorScheme-Text {
        color:#31363b;
      }
      .ColorScheme-Background{
        color:#eff0f1;
      }
      .ColorScheme-ViewText {
        color:#31363b;
      }
      .ColorScheme-ViewBackground{
        color:#fcfcfc;
      }
      .ColorScheme-ViewHover {
        color:#3daee9;
      }
      .ColorScheme-ViewFocus{
        color:#3daee9;
      }
      .ColorScheme-ButtonText {
        color:#31363b;
      }
      .ColorScheme-ButtonBackground{
        color:#eff0f1;
      }
      .ColorScheme-ButtonHover {
        color:#3daee9;
      }
      .ColorScheme-ButtonFocus{
        color:#3daee9;
      }</style>
 </defs>
 <metadata id="metadata5053">
  <rdf:RDF>
   <cc:Work rdf:about="">
    <dc:format>image/svg+xml</dc:format>
    <dc:type rdf:resource="http://purl.org/dc/dcmitype/StillImage"/>
    <dc:title/>
   </cc:Work>
  </rdf:RDF>
 </metadata>
 <path id="path4286" fill="#0079c1" d="m44.003 24c0.124 7.866-4.949 15.451-12.219 18.428-7.142 3.093-16.011 1.5-21.585-3.949-5.6448-5.245-7.7053-13.887-5.0699-21.125 2.5482-7.5016 9.915-13.029 17.841-13.326 7.7057-0.4977 15.403 3.9685 18.844 10.87 1.4403 2.8006 2.1925 5.9493 2.1885 9.102z"/>
 <rect id="rect3024" fill-opacity="0" ry="10" height="60" width="20" y="-409.04" x="864"/>
 <path id="path4255" opacity=".3" d="m43.979 23.418a20 20 0 0 1 -19.979 19.582 20 20 0 0 1 -19.978 -19.418 20 20 0 0 0 -0.022 0.418 20 20 0 0 0 20 20 20 20 0 0 0 20 -20 20 20 0 0 0 -0.021 -0.582z"/>
 <path id="path4260" opacity=".2" d="m24 4a20 20 0 0 0 -20 20 20 20 0 0 0 0.0215 0.582 20 20 0 0 1 19.978 -19.582 20 20 0 0 1 19.978 19.418 20 20 0 0 0 0.022 -0.418 20 20 0 0 0 -20 -20z" fill="#fff"/>
 <g id="g4159" opacity=".2" transform="matrix(.33581 0 0 .33171 2.3721 3.3949)">
  <g id="g4161" transform="translate(19.557 19.715)">
   <path id="path4163" d="m24.936 4c-4.457 0.1445 11.873 22.675-0.704 21.236 10.488 2.906 12.89-10.631 10.748-17.254-2.121-6.5595-3.224-2.4664-9.546-3.9234-0.189-0.0435-0.355-0.0633-0.498-0.0586zm-12.497 3.1406c-6.8937-0.0092-3.3417 2.3056-6.6812 7.8694-3.1893 5.313 25.193-4.203 19.769 7.685 6.004-9.076-6.128-15.545-13.088-15.554zm4.85 10.171c-5.516-0.013-11.067 6.255-12.619 11.01-2.1392 6.554 1.1589 3.892 5.418 8.787 4.067 4.676 3.79-25.262 13.42-16.429-1.906-2.395-4.06-3.362-6.219-3.368zm23.709 1.0645c-3.7238 0.35638-17.308 17.624-19.582 6.418 0.47772 10.872 14.097 8.9741 19.732 4.8906 5.5829-4.0451 1.3477-3.8309 0.7793-10.295-0.06784-0.77168-0.39772-1.0646-0.92969-1.0137zm-20.031 3.5996c-10.192 3.8141-4.1777 16.181 1.4473 20.279 5.572 4.0599 4.0596 0.09861 10.031-2.4395 5.7032-2.4239-22.854-11.41-11.479-17.84z" fill-rule="evenodd" transform="matrix(2.2334 0 0 2.2609 -8.7524 -8.8454)"/>
  </g>
 </g>
 <g id="g3015" fill="#fff" transform="matrix(.33581 0 0 .33171 2.3721 2.3949)">
  <g id="g7930" fill="#fff" transform="translate(19.557 19.715)">
   <path id="path7811" d="m24.936 4c-4.457 0.1445 11.873 22.675-0.704 21.236 10.488 2.906 12.89-10.631 10.748-17.254-2.121-6.5595-3.224-2.4664-9.546-3.9234-0.189-0.0435-0.355-0.0633-0.498-0.0586zm-12.497 3.1406c-6.8937-0.0092-3.3417 2.3056-6.6812 7.8694-3.1893 5.313 25.193-4.203 19.769 7.685 6.004-9.076-6.128-15.545-13.088-15.554zm4.85 10.171c-5.516-0.013-11.067 6.255-12.619 11.01-2.1392 6.554 1.1589 3.892 5.418 8.787 4.067 4.676 3.79-25.262 13.42-16.429-1.906-2.395-4.06-3.362-6.219-3.368zm23.709 1.0645c-3.7238 0.35638-17.308 17.624-19.582 6.418 0.47772 10.872 14.097 8.9741 19.732 4.8906 5.5829-4.0451 1.3477-3.8309 0.7793-10.295-0.06784-0.77168-0.39772-1.0646-0.92969-1.0137zm-20.031 3.5996c-10.192 3.8141-4.1777 16.181 1.4473 20.279 5.572 4.0599 4.0596 0.09861 10.031-2.4395 5.7032-2.4239-22.854-11.41-11.479-17.84z" fill-rule="evenodd" transform="matrix(2.2334 0 0 2.2609 -8.7524 -8.8454)" fill="#fff"/>
  </g>
 </g>
</svg>
